X: 4294
T: Bobby Treacey's
R: barndance
M: 4/4
K: Dmajor
B|AF F2 AF F2|EDEF G3 B|AF F2 AF F2|EDEF D2 (3dcB|
AF F2 AF F2|EDEF G3 B|AF F2 AF F2|EDEF D2 (3ABc||
d2 fd c2 ec|BABd A3 F|GABc dBAG|F2 EF D2 (3ABc|
d2 fd c2 ec|BABd A3 F|GABc dBAG|FDEC D2||

